content/packer/v1.10.x/img/product-features-list/stability.svg

<svg width="72" height="72" viewBox="0 0 72 72" fill="none" xmlns="http://www.w3.org/2000/svg">
<rect width="72" height="72" fill="#F0FAFF"/>
<path fill-rule="evenodd" clip-rule="evenodd" d="M35.7425 24.0359C35.8702 23.988 36.011 23.988 36.1387 24.0359L37.0849 24.3908L37.0858 24.3911C39.4436 25.2535 41.9202 25.6005 44.4012 25.4862L45.1649 25.4274C45.3215 25.4154 45.4761 25.4692 45.5914 25.576C45.7067 25.6827 45.7722 25.8327 45.7722 25.9899V37.5743C45.7722 40.5309 44.1595 43.2591 41.1576 45.011L41.1569 45.0114L41.1562 45.0118L36.2893 47.9201C36.1111 48.0266 35.8889 48.0266 35.7107 47.9201L30.8444 45.0122L30.8433 45.0116L30.8424 45.011C27.8405 43.2591 26.2278 40.5309 26.2278 37.5743V25.9899C26.2278 25.8314 26.2945 25.6802 26.4115 25.5733C26.5285 25.4665 26.6851 25.4137 26.8429 25.4281L27.4839 25.4864C29.9667 25.6003 32.4988 25.2523 34.792 24.3924L35.7425 24.0359ZM35.9406 25.1665L35.1881 25.4487C32.7326 26.3695 30.0414 26.7347 27.4191 26.6127C27.4108 26.6123 27.4025 26.6118 27.3943 26.611L27.3559 26.6075V37.5743C27.3559 40.0826 28.7129 42.4628 31.4128 44.0377L31.418 44.0407L36 46.7788L40.5861 44.0383L40.5872 44.0377C43.2871 42.4628 44.6441 40.0826 44.6441 37.5743V26.599L44.4791 26.6117C44.4734 26.6121 44.4678 26.6125 44.4621 26.6127C41.8375 26.7348 39.2077 26.3687 36.6973 25.4502L36.6939 25.449L36.693 25.4487L35.9406 25.1665Z" fill="#63D0FF"/>
<path fill-rule="evenodd" clip-rule="evenodd" d="M31.5693 36.5061C31.3396 36.273 31.3423 35.8978 31.5754 35.6681C31.8085 35.4383 32.1836 35.4411 32.4134 35.6742L34.5071 37.7985L37.8341 34.5194L40.7391 31.6562C40.9722 31.4265 41.3474 31.4292 41.5771 31.6623C41.8068 31.8954 41.8041 32.2706 41.571 32.5003L34.495 39.4745L31.5693 36.5061Z" fill="#63D0FF"/>
</svg>

<svg xmlns="http://www.w3.org/2000/svg" width="72" height="72" fill="none" viewBox="0 0 72 72">
  <path fill="#F0FAFF" d="M0 0h72v72H0z"/>
  <path fill="#63D0FF" fill-rule="evenodd" d="M35.743 24.036a.56.56 0 0 1 .396 0l.946.355c2.359.863 4.835 1.21 7.316 1.095l.764-.059a.564.564 0 0 1 .607.563v11.584c0 2.957-1.612 5.685-4.614 7.437h-.001l-4.868 2.91a.56.56 0 0 1-.578 0l-4.867-2.909-.002-.001c-3.001-1.752-4.614-4.48-4.614-7.437V25.99a.564.564 0 0 1 .615-.562l.64.058c2.484.114 5.016-.234 7.309-1.094zm.198 1.13-.753.283c-2.455.92-5.147 1.286-7.769 1.164l-.025-.002-.038-.003v10.966c0 2.509 1.357 4.889 4.057 6.464l.005.003L36 46.779l4.586-2.74.001-.001c2.7-1.575 4.057-3.955 4.057-6.464V26.6l-.165.013h-.017c-2.625.123-5.254-.243-7.765-1.162l-.003-.001h-.001z" clip-rule="evenodd"/>
  <path fill="#63D0FF" fill-rule="evenodd" d="M31.57 36.506a.593.593 0 0 1 .843-.832l2.094 2.124 3.327-3.279 2.905-2.863a.593.593 0 0 1 .832.844l-7.076 6.974z" clip-rule="evenodd"/>
</svg>
